.svelte-kit/output/client/library/social-微信.svg

<svg width="48" height="48" viewBox="0 0 48 48" fill="none" xmlns="http://www.w3.org/2000/svg">
<path fill-rule="evenodd" clip-rule="evenodd" d="M32.8002 18.0032C32.7003 18.0011 32.6003 18 32.5 18C25.7322 18 20 22.7982 20 29C20 30.0066 20.151 30.9762 20.4329 31.8943C19.8006 31.964 19.1554 32 18.5 32C16.691 32 14.9594 31.7258 13.3625 31.225C12.9687 31.1015 11.5352 31.9211 10.3242 32.6136C9.39667 33.1439 8.59964 33.5996 8.5 33.5C8.40636 33.4064 8.66869 32.7823 8.97559 32.0522C9.42166 30.9911 9.96188 29.7059 9.64003 29.5C6.20927 27.3054 4 23.8662 4 20C4 13.3726 10.4919 8 18.5 8C25.6861 8 31.6512 12.3262 32.8002 18.0032ZM16 16C16 17.1046 15.1046 18 14 18C12.8954 18 12 17.1046 12 16C12 14.8954 12.8954 14 14 14C15.1046 14 16 14.8954 16 16ZM23 18C24.1046 18 25 17.1046 25 16C25 14.8954 24.1046 14 23 14C21.8954 14 21 14.8954 21 16C21 17.1046 21.8954 18 23 18Z" fill="#6BB657"/>
<path fill-rule="evenodd" clip-rule="evenodd" d="M44 29C44 32.3618 42.0923 35.3361 39.1669 37.149C39.0378 37.2291 39.336 38.0075 39.6134 38.7318L39.6135 38.7319C39.8502 39.3498 40.0717 39.9283 40 40C39.925 40.075 39.1979 39.6732 38.4286 39.2481C37.6003 38.7903 36.723 38.3055 36.5579 38.3597C35.296 38.7735 33.9284 39 32.5 39C26.1487 39 21 34.5228 21 29C21 23.4772 26.1487 19 32.5 19C38.8513 19 44 23.4772 44 29ZM38 25.5C38 26.3284 37.3284 27 36.5 27C35.6716 27 35 26.3284 35 25.5C35 24.6716 35.6716 24 36.5 24C37.3284 24 38 24.6716 38 25.5ZM28.5 27C29.3284 27 30 26.3284 30 25.5C30 24.6716 29.3284 24 28.5 24C27.6716 24 27 24.6716 27 25.5C27 26.3284 27.6716 27 28.5 27Z" fill="#6BB657"/>
</svg>

<svg width="48" height="48" fill="none" xmlns="http://www.w3.org/2000/svg"><path fill-rule="evenodd" clip-rule="evenodd" d="M32.8 18.003 32.5 18C25.732 18 20 22.798 20 29c0 1.007.151 1.976.433 2.894A17.64 17.64 0 0 1 18.5 32c-1.809 0-3.54-.274-5.137-.775-.394-.123-1.828.696-3.039 1.389-.927.53-1.724.986-1.824.886-.094-.094.169-.718.476-1.448.446-1.06.986-2.346.664-2.552C6.21 27.305 4 23.866 4 20c0-6.627 6.492-12 14.5-12 7.186 0 13.151 4.326 14.3 10.003ZM16 16a2 2 0 1 1-4 0 2 2 0 0 1 4 0Zm7 2a2 2 0 1 0 0-4 2 2 0 0 0 0 4Z" fill="#6BB657"/><path fill-rule="evenodd" clip-rule="evenodd" d="M44 29c0 3.362-1.908 6.336-4.833 8.149-.13.08.169.858.446 1.583.237.618.459 1.196.387 1.268-.075.075-.802-.327-1.571-.752-.829-.458-1.706-.942-1.871-.888-1.262.413-2.63.64-4.058.64C26.149 39 21 34.523 21 29s5.149-10 11.5-10S44 23.477 44 29Zm-6-3.5a1.5 1.5 0 1 1-3 0 1.5 1.5 0 0 1 3 0ZM28.5 27a1.5 1.5 0 1 0 0-3 1.5 1.5 0 0 0 0 3Z" fill="#6BB657"/></svg>
